picto/ramp-down-right.svg

<svg class="color-immutable" width="24" height="24" viewBox="0 0 24 24" fill="none" xmlns="http://www.w3.org/2000/svg"><g clip-path="url(#a)"><path d="M0 22.5v-21C0 .675.675 0 1.5 0h21c.825 0 1.5.675 1.5 1.5v21c0 .825-.675 1.5-1.5 1.5h-21C.675 24 0 23.325 0 22.5Z" fill="#2D327D"/><path d="M3 21.001h14.25v-.6L3 18.076v2.925ZM20.485 11.604a.507.507 0 0 0 .198-.972l-.958-.407v1.1l.562.238c.062.028.13.041.198.041Z" fill="#fff"/><path d="M19.125 13.051V7.467a1.5 1.5 0 0 0-2.727-.863l-1.561 2.219a.749.749 0 0 0-.137.432v2.989a.506.506 0 1 0 1.012 0V9.468l.712-1.013V16.2l-1.323 2.259a.713.713 0 0 0 1.229.721l1.491-2.546a.751.751 0 0 0 .103-.379v-2.284l1.65 2.839v3.29a.712.712 0 0 0 1.424 0v-3.62a.758.758 0 0 0-.101-.377l-1.772-3.052ZM17.839 5.606a1.313 1.313 0 1 0-.002-2.626 1.313 1.313 0 0 0 .002 2.626Z" fill="#fff"/></g><defs><clipPath id="a"><path fill="#fff" d="M0 0h24v24H0z"/></clipPath></defs></svg>

<svg class="color-immutable" width="24" height="24" viewBox="0 0 24 24" fill="none" xmlns="http://www.w3.org/2000/svg"><path d="M0 22.5V1.5C0 0.675 0.675 0 1.5 0H22.5C23.325 0 24 0.675 24 1.5V22.5C24 23.325 23.325 24 22.5 24H1.5C0.675 24 0 23.325 0 22.5Z" fill="#2D327D"/><path d="M3 21.001H17.25V20.401L3 18.076V21.001Z" fill="white"/><path d="M20.485 11.604C20.764 11.604 20.991 11.377 20.991 11.098C20.991 10.895 20.87 10.712 20.683 10.632L19.725 10.225V11.325L20.287 11.563C20.349 11.591 20.417 11.604 20.485 11.604Z" fill="white"/><path d="M19.125 13.051V7.467C19.125 6.639 18.453 5.967 17.625 5.967C17.137 5.967 16.68 6.205 16.398 6.604L14.837 8.823C14.748 8.949 14.7 9.1 14.7 9.255V12.244C14.7 12.524 14.927 12.75 15.206 12.75C15.486 12.75 15.712 12.523 15.712 12.244V9.468L16.424 8.455V16.2L15.101 18.459C15.036 18.569 15.003 18.693 15.003 18.819C15.003 19.212 15.322 19.532 15.715 19.532C15.968 19.532 16.202 19.397 16.33 19.18L17.821 16.634C17.888 16.52 17.924 16.388 17.924 16.255V13.971L19.574 16.81V20.1C19.574 20.493 19.893 20.812 20.286 20.812C20.679 20.812 20.998 20.493 20.998 20.1V16.48C20.998 16.348 20.963 16.218 20.897 16.103L19.125 13.051Z" fill="white"/><path d="M17.839 5.606C18.563 5.606 19.151 5.018 19.151 4.293C19.151 3.568 18.563 2.981 17.839 2.981C17.114 2.981 16.527 3.569 16.527 4.293C16.526 5.018 17.114 5.606 17.839 5.606Z" fill="white"/></svg>
